!!!!SEGMENT: pl-kk--kk-i-62--001-007_anonim--missa-dona-nobis.krn
!!!cenid: 17xx:2256
!!!COM: Anonim
!!!COM-rismid: pe30004985
!!!CDT:
!!!CNT:
!!!OPR: Missa
!!!OTL: Dona nobis
!!!OMV: 007
!!!PDT:
!!!AGN: Sacred; Mass
!!!SMS-siglum: PL-Kk
!!!SMS-shelfmark: Kk.I.62
!!!SMS-shelfwork: 001-007 M
!!!SMS-variant:
!!!SMS-altvar:
!!!NIFC-rismid: 1001157167
!!!URL-scan: http://repozytorium.nifc.pl/skany/pl-kk-nut--i-62
!!!ONB-nifc: UWAGA: w zbiorze: 001 – Missa i 002 – Ut detus ex Agni throno. Części Mszy (001): 1. Kyrie, 2. Gloria, 3. Credo, 4. Sanctus, 5. Benedictus, 6. Agnus Dei, 7. Dona nobis.
**kern	**kern	**kern	**text	**kern	**text	**kern	**text	**kern	**text
*part6	*part5	*part4	*part4	*part3	*part3	*part2	*part2	*part1	*part1
*staff6	*staff5	*staff4	*staff4	*staff3	*staff3	*staff2	*staff2	*staff1	*staff1
*I"Baſso Accompagnato.	*I"Contra Baſso.	*I"Baſso.	*	*I"Tenore.	*	*I"Alto.	*	*I"Canto.	*
*I'b acc.	*I'cb	*I'B	*	*I'T	*	*I'A	*	*I'S	*
*clefF4	*clefF4	*clefF4	*	*clefC4	*	*clefC3	*	*clefC1	*
*	*Trd0c0	*	*	*	*	*	*	*	*
*k[b-e-]	*k[b-e-]	*k[b-e-]	*	*k[b-e-]	*	*k[b-e-]	*	*k[b-e-]	*
*B-:	*B-:	*B-:	*	*B-:	*	*B-:	*	*B-:	*
*M6/8	*M6/8	*M6/8	*	*M6/8	*	*M6/8	*	*M6/8	*
*all\right	*all\right	*all\right	*	*all\right	*	*all\right	*	*all\right	*
=1	=1	=1	=1	=1	=1	=1	=1	=1	=1
*	*	*2\right	*	*2\right	*	*2\right	*	*2\right	*
!	!	!LO:TX:a:B:t=Allegto	!	!LO:TX:t=P:problem:brak klucza	!	!	!	!LO:TX:t=P:problem:kolejność znaków b- ee-	!
!LO:TX:a:B:t=Andte	!LO:TX:a:B:t=Andte	!LO:N:vis=2.	!	!LO:N:vis=2.	!	!LO:N:vis=2.	!	!LO:N:vis=2.	!
8B-\L	8B-\L	4.B-\	Do-	4.B-\	Do-	4.b-\	Do-	4.b-\	Do-
8B-\	8B-\	.	.	.	.	.	.	.	.
8B-\J	8B-\J	.	.	.	.	.	.	.	.
*	*tremolo	*	*	*	*	*	*	*	*
!	!	!LO:N:vis=2.	!	!LO:N:vis=2.	!	!LO:N:vis=2.	!	!LO:N:vis=2.	!
8d\L	8d\L	4.d\	-na	4.d\	-na	4.dd\	-na	4.dd\	-na
8d\	8d\	.	.	.	.	.	.	.	.
8d\J	8d\J	.	.	.	.	.	.	.	.
*	*Xtremolo	*	*	*	*	*	*	*	*
=2	=2	=2	=2	=2	=2	=2	=2	=2	=2
!	!	!LO:N:vis=2.	!	!LO:N:vis=2.	!	!LO:N:vis=2.	!	!LO:N:vis=2.	!
8G\L	8G\L	4.G\	no-	4.G/	no-	4.g\	no-	4.g/	no-
8G\	8G\	.	.	.	.	.	.	.	.
8G\J	8G\J	.	.	.	.	.	.	.	.
*	*tremolo	*	*	*	*	*	*	*	*
!	!	!LO:N:vis=2.	!	!LO:N:vis=2.	!	!LO:N:vis=2.	!	!LO:N:vis=2.	!
8B-\L	8B-\L	4.B-\	-bis	4.B-/	-bis	4.b-\	-bis	4.b-/	-bis
8B-\	8B-\	.	.	.	.	.	.	.	.
8B-\J	8B-\J	.	.	.	.	.	.	.	.
*	*Xtremolo	*	*	*	*	*	*	*	*
=3	=3	=3	=3	=3	=3	=3	=3	=3	=3
!	!	!LO:N:vis=2.	!	!LO:N:vis=2.	!	!LO:N:vis=2.	!	!LO:N:vis=2.	!
8E-\L	8E-\L	4.E-\	Do-	4.E-/	Do-	4.e-\	Do-	4.e-/	Do-
8E-\	8E-\	.	.	.	.	.	.	.	.
8E-\J	8E-\J	.	.	.	.	.	.	.	.
*	*tremolo	*	*	*	*	*	*	*	*
!LO:LB:g=original	!	!LO:N:vis=2.	!	!LO:N:vis=2.	!	!LO:N:vis=2.	!	!LO:N:vis=2.	!
8G\L	8G\L	4.G\	-na	4.G/	-na	4.g\	-na	4.g/	-na
8G\	8G\	.	.	.	.	.	.	.	.
8G\J	8G\J	.	.	.	.	.	.	.	.
*	*Xtremolo	*	*	*	*	*	*	*	*
!	!LO:LB:g=original	!	!	!	!	!	!	!	!
=4	=4	=4	=4	=4	=4	=4	=4	=4	=4
8F\L	8F\L	4F\	no-	4c\	no-	4f\	pa-	4cc\	no-
8F\	8F\	.	.	.	.	.	.	.	.
8F\J	8F\J	8F\	-bis	8A\	-bis	8f\	-cem	8cc\	-bis
!	!	!	!	!	!	!LO:LB:g=original	!	!LO:LB:g=original	!
8A\L	8A\L	4A\	Do-	4c\	pa-	4f\	Do-	4cc\	Do-
8A\	8A\	.	.	.	.	.	.	.	.
8F\J	8F\J	8F\	-na	8A\	-cem	8f\	-na	8cc\	-na
!	!	!	!	!LO:LB:g=original	!	!	!	!	!
=5	=5	=5	=5	=5	=5	=5	=5	=5	=5
8B-\L	8B-\L	8B-\	pa-	8B-/	Do-	8f\	pa-	8dd\	pa-
8F\	8F\	8F\	-cem	8A/	-na	8f\	-cem	8cc\	-cem
8F\J	8F\J	8r	.	8r	.	8r	.	8r	.
*	*	*	*ij	*	*	*	*	*	*
!	!	!LO:LB:g=original	!	!	!	!	!	!	!
8C/L	8C/L	8En\	pa-	8G/	pa-	4r	.	4r	.
8F/	8F/	8F\	-cem	8A/	-cem	.	.	.	.
*	*	*	*Xij	*	*	*	*	*	*
8F/J	8F/J	8r	.	8r	.	8r	.	8r	.
=6	=6	=6	=6	=6	=6	=6	=6	=6	=6
!	!	!	!	!	!	!LO:N:vis=2.	!	!LO:N:vis=2.	!
4B-\	4B-\	16B-\LL	Do-	4r	.	4.b-\	Do-	4.b-\	Do-
.	.	16A\	.	.	.	.	.	.	.
.	.	16G\	.	.	.	.	.	.	.
.	.	16F\	.	.	.	.	.	.	.
8r	8r	16E-\	.	8r	.	.	.	.	.
.	.	16D\JJ	.	.	.	.	.	.	.
!	!	!	!	!	!	!LO:N:vis=2.	!	!LO:N:vis=2.	!
4G\	4G\	16G/LL	.	16B-/LL	Do-	4.b-\	-na	4.b-\	-na
.	.	16F/	.	16A/	.	.	.	.	.
.	.	16E-/	.	16G/	.	.	.	.	.
.	.	16D/	.	16F/	.	.	.	.	.
8r	8r	16C/	.	16E-/	.	.	.	.	.
.	.	16BB-/JJ	.	16D/JJ	.	.	.	.	.
=7	=7	=7	=7	=7	=7	=7	=7	=7	=7
!	!	!	!	!	!	!LO:N:vis=2.	!	!LO:N:vis=2.	!
4E-\	4E-\	16E-/LL	.	16G/LL	.	4.b-\	no-	4.b-\	no-
.	.	16D/	.	16F/	.	.	.	.	.
.	.	16C/	.	16E-/	.	.	.	.	.
.	.	16BB-/	.	16D/	.	.	.	.	.
8r	8r	16AA/	.	16C/	.	.	.	.	.
.	.	16BB-/JJ	.	16BB-/JJ	.	.	.	.	.
!LO:PB:g=original	!	!	!	!LO:PB:g=original	!	!	!	!	!
8F\L	8F\L	4F\	.	4F/	.	16f\LL	.	(16a\LL	.
.	.	.	.	.	.	16g\	.	16b-\	.
8F\	8F\	.	.	.	.	16a\	.	16cc\	.
.	.	.	.	.	.	16b-\JJ	.	16dd\JJ	.
8F\J	8F\J	8F\	-na	8F/	-na	16cc\LL	-bis	16ee-\LL	-bis
.	.	.	.	.	.	16a\JJ	.	16cc\JJ)	.
!	!LO:LB:g=original	!	!	!	!	!LO:LB:g=original	!	!LO:LB:g=original	!
=8	=8	=8	=8	=8	=8	=8	=8	=8	=8
8BB-/L	8BB-/L	8BB-/	pa-	8B-\	no-	8b-\	pa-	8dd\	pa-
8F/	8F/	8F\	-cem	8c\	-bis	8a\	-cem	8cc\	-cem
8F/J	8F/J	8r	.	8r	.	8r	.	8r	.
*	*	*	*ij	*	*	*	*ij	*	*ij
!	!	!LO:LB:g=original	!	!	!	!	!	!	!
8C/L	8C/L	8C/	pa-	8B-\	pa-	8f\	pa-	8b-\	pa-
8F/	8F/	8F\	-cem	8c\	-cem	8e-\	-cem	8a\	-cem
*	*	*	*Xij	*	*	*	*Xij	*	*Xij
8F/J	8F/J	8r	.	8r	.	8r	.	8r	.
=9	=9	=9	=9	=9	=9	=9	=9	=9	=9
4F\	4F\	16F\LL	Do-	16A\LL	Do-	4a\	Do-	4ff\	Do-
.	.	16G\	.	16B-\	.	.	.	.	.
.	.	16A\	.	16c\	.	.	.	.	.
.	.	16B-\	.	16d\	.	.	.	.	.
8r	8r	16A\	.	16c\	.	8a\	-na	8ff\	-na
.	.	16G\JJ	.	16B-\JJ	.	.	.	.	.
4FF/	4FF/	16F\LL	.	16A\LL	.	4a\	no-	4ff\	no-
.	.	16G\	.	16B-\	.	.	.	.	.
.	.	16A\	.	16c\	.	.	.	.	.
.	.	16B-\	.	16d\	.	.	.	.	.
8r	8r	16A\	.	16c\	.	8a\	-bis	8ff\	-bi
.	.	16G\JJ	.	16B-\JJ	.	.	.	.	.
!	!	!	!	!LO:LB:g=original	!	!	!	!	!
=10	=10	=10	=10	=10	=10	=10	=10	=10	=10
4F\	4F\	16F\LL	.	16A\LL	.	4a\	pa-	4ff\	pa-
.	.	16G\	.	16B-\	.	.	.	.	.
.	.	16A\	.	16c\	.	.	.	.	.
.	.	16B-\	.	16d\	.	.	.	.	.
8r	8r	16c\	.	16e-\	.	8a\	-cem	8cc\	-cem
.	.	16A\JJ	.	16c\JJ	.	.	.	.	.
8B-\L	8B-\L	4B-\	.	4B-\	.	(16d\LL	Do-	16b-\LL	Do-
.	.	.	.	.	.	16e-JJ\)	.	16cc\	.
!	!	!	!	!	!	!LO:LB:g=original	!	!	!
8B-\	8B-\	.	.	.	.	16fLL\	.	16dd\	.
.	.	.	.	.	.	16g\	.	16ee-\	.
8B-\J	8B-\J	8B-\	-na	8B-\	-na	16f\	.	16dd\	.
.	.	.	.	.	.	16e-\JJ	.	16cc\JJ	.
!LO:LB:g=original	!	!	!	!	!	!	!	!LO:LB:g=original	!
=11	=11	=11	=11	=11	=11	=11	=11	=11	=11
!LO:TX:t=P:problem:mixed beam	!LO:TX:t=P:problem:mixed beam	!	!	!	!	!	!	!	!
8BB-/L	8BB-/L	4B-\	Do-	4B-\	Do-	16d\LL	.	16b-\LL	.
.	.	.	.	.	.	16e-\	.	16cc\	.
8B-\	8B-\	.	.	.	.	16f\	.	16dd\	.
.	.	.	.	.	.	16g\	.	16ee-\	.
8B-\J	8B-\J	8B-\	-na	8B-\	-na	16f\	.	16dd\	.
.	.	.	.	.	.	16e-\JJ	.	16cc\JJ	.
*	*tremolo	*	*	*	*	*	*	*	*
!	!	!LO:LB:g=original	!	!	!	!	!	!	!
8B-\L	8B-\L	4B-\	no-	4B-\	no-	16d\LL	.	16b-\LL	.
.	.	.	.	.	.	16e-\	.	16cc\	.
8B-\	8B-\	.	.	.	.	16f\	.	16dd\	.
.	.	.	.	.	.	16g\	.	16ee-\	.
8B-\J	8B-\J	8B-\	-bis	8B-\	-bis	16a\	.	16ff\	.
.	.	.	.	.	.	16f\JJ	.	16dd\JJ	.
*	*Xtremolo	*	*	*	*	*	*	*	*
!	!LO:LB:g=original	!	!	!	!	!	!	!	!
=12	=12	=12	=12	=12	=12	=12	=12	=12	=12
8F\L	8F\L	4F\	Do-	4c\	Do-	16cc\LL	.	16ee-\LL	.
.	.	.	.	.	.	16b-\	.	16dd\	.
8F\	8F\	.	.	.	.	16a\	.	16cc\	.
.	.	.	.	.	.	16g\	.	16b-\	.
8F\J	8F\J	8F\	-na	8c\	-na	16f\	.	16a\	.
.	.	.	.	.	.	16e-\JJ	.	16g\JJ	.
*	*tremolo	*	*	*	*	*	*	*	*
8F\L	8F\L	4F\	pa-	16A\LL	pa-	4f\	.	16f/LL	.
.	.	.	.	16B-\	.	.	.	16g/	.
8F\	8F\	.	.	16c\	.	.	.	16a/	.
.	.	.	.	16d\JJ	.	.	.	16b-/	.
!	!	!	!	!LO:LB:g=original	!	!	!	!	!
8F\J	8F\J	8F\	-cem	16e-\LL	.	8f\	-na	16cc/	.
.	.	.	.	16c\JJ	.	.	.	16a/JJ	.
*	*Xtremolo	*	*	*	*	*	*	*	*
!	!	!	!	!	!	!LO:LB:g=original	!	!	!
=13	=13	=13	=13	=13	=13	=13	=13	=13	=13
4BB-/	4B-\	16B-\LL	pa-	4B-\	.	16dd\LL	pa-	4dd\	.
.	.	16A\	.	.	.	16cc\	.	.	.
.	.	16G\	.	.	.	16b-\	.	.	.
.	.	16F\	.	.	.	16a\	.	.	.
8r	8r	16E-\	.	8B-\	-cem	16g\	.	8dd\	-na
.	.	16D\JJ	.	.	.	16f\JJ	.	.	.
!	!	!	!	!	!	!	!	!LO:LB:g=original	!
8F\L	8F\L	4F\	.	16A/LL	pa-	4a\	.	16cc\LL	pa-
.	.	.	.	16G/	.	.	.	16b-\	.
8F\	8F\	.	.	16A/	.	.	.	16cc\	.
.	.	.	.	16B-/	.	.	.	16dd\	.
8F\J	8F\J	8F\	-cem	16c/	.	8f\	-cem	16ee-\	.
.	.	.	.	16A/JJ	.	.	.	16cc\JJ	.
=14	=14	=14	=14	=14	=14	=14	=14	=14	=14
8BB-/L	8BB-/L	8BB-/L	Do-	8B-\	-cem	(8f\L	Do-	8dd\	-cem
8C/	8C/	8C/J	.	8A\	Do-	8e-\J)	-na	8cc\	Do-
8D/J	8D/J	8D/	-na	8B-\	-na	8d\	.	8b-\	-na
!LO:LB:g=original	!	!LO:LB:g=original	!	!	!	!	!	!	!
!LO:TX:t=P:problem:mixed beam	!LO:TX:t=P:problem:mixed beam	!LO:TX:t=P:problem:mixed beam	!	!	!	!	!	!	!
8E-\L	8E-\L	8E-\L	pa-	8G/	pa-	8e-\L	pa-	8cc\L	pa-
8F\	8F\	8F\	.	4A/	.	8d\	.	8b-\	.
8FF/J	8FF/J	8FF/J	.	.	.	8c\J	.	8a\J	.
=15	=15	=15	=15	=15	=15	=15	=15	=15	=15
8BB-/L	8BB-/	4BB-/	-cem	4F/	-cem	4d\	-cem	4b-\	-cem
8F/	4B-\	.	.	.	.	.	.	.	.
8B-/J	.	8r	.	8r	.	8r	.	8r	.
!	!	!	!	!LO:LB:g=original	!	!LO:LB:g=original	!	!	!
8F\L	8F\L	4.F\	Do-	4.c\	Do-	16a\LL	Do-	16cc\LL	Do-
.	.	.	.	.	.	16g\	.	16bn\	.
8F\	8F\	.	.	.	.	16a\	.	16cc\	.
.	.	.	.	.	.	16g\	.	16b\	.
8F\J	8F\J	.	.	.	.	16a\	.	16cc\	.
.	.	.	.	.	.	16g\JJ	.	16b\JJ	.
!	!LO:PB:g=original	!	!	!	!	!	!	!LO:LB:g=original	!
=16	=16	=16	=16	=16	=16	=16	=16	=16	=16
8C/L	8C/L	4.C/	-na	4.A/	-na	16a\LL	.	16cc\LL	.
.	.	.	.	.	.	16g\	.	16bny\	.
8C/	8C/	.	.	.	.	16a\	.	16cc\	.
.	.	.	.	.	.	16g\	.	16b\	.
8C/J	8C/J	.	.	.	.	16a\	.	16cc\	.
.	.	.	.	.	.	16g\JJ	.	16b\JJ	.
8F\L	8F\L	4F\	no-	4c\	no-	16a\LL	.	16cc\LL	.
.	.	.	.	.	.	16g\	.	16b\	.
8F\	8F\	.	.	.	.	16a\	.	16cc\	.
.	.	.	.	.	.	16g\	.	16b\	.
8F\J	8F\J	8F\	-bis	8c\	-bis	16a\	.	16cc\	.
.	.	.	.	.	.	16g\JJ	.	16b-X\JJ	.
=17	=17	=17	=17	=17	=17	=17	=17	=17	=17
8F\L	4F/	4F/	pa-	16e-\LL	pa-	16cc\LL	.	4.a\	-na
.	.	.	.	16d\	.	16b-\	.	.	.
8F\	.	.	.	16e-\	.	16cc\	.	.	.
.	.	.	.	16d\	.	16b-\	.	.	.
8C\J	8C/	8C/	.	16e-\	.	16cc\	.	.	.
.	.	.	.	16d\JJ	.	16b-\JJ	.	.	.
!	!	!	!	!	!	!LO:LB:g=original	!	!	!
8F\L	8F\L	4.F\	-cem	16c/LL	.	16cc\LL	.	16ee-X\LL	pa-
.	.	.	.	16B-/JJ	.	16b-\	.	16dd\	.
8F\	8F\	.	.	4A/	-cem	16cc\	.	16ee-\	.
.	.	.	.	.	.	16b-\	.	16dd\	.
8F\J	8F\J	.	.	.	.	16cc\	.	16ee-\	.
.	.	.	.	.	.	16a\JJ	.	16dd\JJ	.
=18	=18	=18	=18	=18	=18	=18	=18	=18	=18
8BB-/L	8BB-/L	4.BB-/	Do-	4.d\	Do-	8b-\L	.	16dd\LL	.
.	.	.	.	.	.	.	.	16ee-\	.
8BB-/	8BB-/	.	.	.	.	8a\	.	16cc\	.
.	.	.	.	.	.	.	.	16dd\	.
8BB-/J	8BB-/J	.	.	.	.	8g\J	.	16b-\	.
.	.	.	.	.	.	.	.	16dd\JJ	.
*	*tremolo	*	*	*	*	*	*	*	*
!LO:LB:g=original	!	!LO:LB:g=original	!	!	!	!	!	!LO:LB:g=original	!
8F\L	8F\L	4.F\	-na	4.c\	-na	16a\LL	.	8cc\L	.
.	.	.	.	.	.	16b-\	.	.	.
8F\	8F\	.	.	.	.	16g\	.	8b-\	.
.	.	.	.	.	.	16a\	.	.	.
8F\J	8F\J	.	.	.	.	16f\	.	8a\J	.
.	.	.	.	.	.	16a\JJ	.	.	.
*	*Xtremolo	*	*	*	*	*	*	*	*
!	!LO:LB:g=original	!	!	!LO:LB:g=original	!	!	!	!	!
=19	=19	=19	=19	=19	=19	=19	=19	=19	=19
8E-/L	8E-/L	16E-/LL	pa-	8G/L	pa-	4.cc\	.	(8cc\	.
.	.	16F/	.	.	.	.	.	.	.
8D/	8D/	16D/	.	8F/	.	.	.	4ee-\)	.
.	.	16E-/	.	.	.	.	.	.	.
8C/J	8C/J	16C/	.	8E-/J	.	.	.	.	.
.	.	16E-/JJ	.	.	.	.	.	.	.
!LO:TX:t=P:problem:mixed beam	!	!	!	!	!	!	!	!	!
8D\L	8BB-/	16D/LL	.	8D/	-cem	8f\	-na	(8dd\	.
.	.	16BB-/J	.	.	.	.	.	.	.
8F\	4F\	8F/	.	4A/	pa-	4e-\	pa-	4cc\)	.
8FF/J	.	8FF/J	.	.	.	.	.	.	.
!	!	!	!	!	!	!LO:LB:g=original	!	!	!
=20	=20	=20	=20	=20	=20	=20	=20	=20	=20
!LO:TX:t=P:problem:mixed beam	!	!	!	!	!	!	!	!	!
8BB-/L	8B-\L	4BB-/	-cem	4F/	-cem	4b-\	-cem	4dd\	-cem
8F\	8F\	.	.	.	.	.	.	.	.
8B-\J	8BB-\J	8r	.	8r	.	8r	.	8r	.
8F\L	8F\L	4.F\	Do-	4.c\	Do-	16a\LL	Do-	16cc\LL	Do-
.	.	.	.	.	.	16g\	.	16bn\	.
8F\	8F\	.	.	.	.	16a\	.	16cc\	.
.	.	.	.	.	.	16g\	.	16b\	.
8F\J	8F\J	.	.	.	.	16a\	.	16cc\	.
.	.	.	.	.	.	16g\JJ	.	16b\JJ	.
=21	=21	=21	=21	=21	=21	=21	=21	=21	=21
8C/L	8C/L	4.C/	-na	4.A/	-na	16a\LL	.	16cc\LL	.
.	.	.	.	.	.	16g\	.	16bny\	.
8C/	8C/	.	.	.	.	16a\	.	16cc\	.
.	.	.	.	.	.	16g\	.	16b\	.
8C/J	8C/J	.	.	.	.	16a\	.	16cc\	.
.	.	.	.	.	.	16g\JJ	.	16b\JJ	.
!	!	!	!	!	!	!	!	!LO:PB:g=original	!
8F\L	8F\L	4F\	no-	4c\	no-	16a\LL	.	16cc\LL	.
.	.	.	.	.	.	16g\	.	16bn\	.
8F\	8F\	.	.	.	.	16a\	.	16cc\	.
.	.	.	.	.	.	16g\	.	16b\	.
8F\J	8F\J	8F\	-bis	8c\	-bis	16a\	.	16cc\	.
.	.	.	.	.	.	16g\JJ	.	16b-X\JJ	.
!LO:LB:g=original	!	!LO:PB:g=original	!	!	!	!LO:PB:g=original	!	!	!
=22	=22	=22	=22	=22	=22	=22	=22	=22	=22
8F\L	4F\	4F\	pa-	16e-\LL	pa-	16cc\LL	.	4.a\	-na
.	.	.	.	16d\JJ	.	16b-\	.	.	.
!	!	!	!	!LO:LB:g=original	!	!	!	!	!
8F\	.	.	.	16e-\LL	.	16cc\	.	.	.
.	.	.	.	16d\	.	16b-\	.	.	.
8C\J	8C/	8C/	.	16e-\	.	16cc\	.	.	.
.	.	.	.	16d\JJ	.	16b-\JJ	.	.	.
!	!LO:LB:g=original	!	!	!	!	!	!	!	!
8F\L	8F\L	4.F\	-cem	16c/LL	.	16cc\LL	.	16ee-X\LL	pa-
.	.	.	.	16B-/JJ	.	16b-\	.	16dd\	.
8F\	8F\	.	.	4A/	-cem	16cc\	.	16ee-\	.
.	.	.	.	.	.	16b-\	.	16dd\	.
8F\J	8F\J	.	.	.	.	16cc\	.	16ee-\	.
.	.	.	.	.	.	16a\JJ	.	16dd\JJ	.
=23	=23	=23	=23	=23	=23	=23	=23	=23	=23
8BB-/L	8BB-/L	4.BB-/	Do-	4.d\	Do-	8b-\L	.	16dd\LL	.
.	.	.	.	.	.	.	.	16ee-\	.
8BB-/	8BB-/	.	.	.	.	8a\	.	16cc\	.
.	.	.	.	.	.	.	.	16dd\	.
8BB-/J	8BB-/J	.	.	.	.	8g\J	.	16b-\	.
.	.	.	.	.	.	.	.	16dd\JJ	.
*	*tremolo	*	*	*	*	*	*	*	*
8F\L	8F\L	4.F\	-na	4c\	.	16a\LL	.	8cc\L	.
.	.	.	.	.	.	16b-\	.	.	.
8F\	8F\	.	.	.	.	16g\	.	8b-\	.
.	.	.	.	.	.	16a\	.	.	.
8F\J	8F\J	.	.	8A/	-na	16f\	.	8a\J	.
.	.	.	.	.	.	16a\JJ	.	.	.
*	*Xtremolo	*	*	*	*	*	*	*	*
=24	=24	=24	=24	=24	=24	=24	=24	=24	=24
8E-/L	8E-/L	16E-/LL	pa-	8G/L	pa-	4.cc\	.	4.ee-\	-cem
.	.	16F/	.	.	.	.	.	.	.
8D/	8D/	16D/	.	8F/	.	.	.	.	.
.	.	16E-/	.	.	.	.	.	.	.
8C/J	8C/J	16C/	.	8E-/J	.	.	.	.	.
.	.	16E-/JJ	.	.	.	.	.	.	.
!LO:TX:t=P:problem:mixed beam	!LO:TX:t=P:problem:mixed beam	!	!	!LO:LB:g=original	!	!LO:LB:g=original	!	!	!
8D\L	8BB-/L	16D/LL	.	8D/	-cem	8f\	-na	(8dd\	pa-
.	.	16BB-/J	.	.	.	.	.	.	.
8F\	8F\	8F/	.	4A/	pa-	4e-\	pa-	4cc\)	.
8FF/J	8FF/J	8FF/J	.	.	.	.	.	.	.
!	!	!LO:LB:g=original	!	!LO:LB:g=original	!	!	!	!	!
=25	=25	=25	=25	=25	=25	=25	=25	=25	=25
!	!LO:TX:t=P:problem:mixed beam	!	!	!	!	!	!	!	!
8BB-/L	8BB-/L	4BB-/	-cem	4F/	-cem	4b-\	-cem	4dd\	-cem
8BB-/	8B-\	.	.	.	.	.	.	.	.
8BB-/J	8B-\J	8r	.	8r	.	8r	.	8r	.
!	!LO:LB:g=original	!	!	!	!	!	!	!	!
!LO:LB:g=original	!LO:TX:t=P:problem:mixed beam	!	!	!	!	!	!	!	!
8F\L	8F\L	4F\	Do-	4F/	do-	4a\	pa-	4cc\	pa-
8F\	8FF/	.	.	.	.	.	.	.	.
8F\J	8FF/J	8r	.	8r	.	8r	.	8r	.
=26	=26	=26	=26	=26	=26	=26	=26	=26	=26
8BB-/L	8BB-/	4BB-/	-na	4F/	-na	4b-\	-cem	4dd\	-cem
8BB-/	4B-\	.	.	.	.	.	.	.	.
8BB-/J	.	8r	.	8r	.	8r	.	8r	.
8F\L	8F\L	4F\	pa-	4F/	pa-	4a\	pa-	4cc\	pa-
8F\	8F\	.	.	.	.	.	.	.	.
8F\J	8F\J	8r	.	8r	.	8r	.	8r	.
=27	=27	=27	=27	=27	=27	=27	=27	=27	=27
4BB-/	4BB-/	4.BB-/	-cem	4F/	-cem	4.b-\	-cem	4.dd\	-cem
8r	8r	.	.	8r	.	.	.	.	.
4r	4r	4r	.	4r	.	4r	.	4r	.
!	!	!	!	!LO:TX:b:t=Subito Graduale	!	!	!	!	!
8r	8r	8r	.	8r	.	8r	.	8r	.
==	==	==	==	==	==	==	==	==	==
*-	*-	*-	*-	*-	*-	*-	*-	*-	*-
!!!system-decoration: [(s1,s2,s3,s4)][(s5,s6)]
!!!ENC: Andrzej Kubiczek
!!!END: 2021-08-04
!!!ENC: Anastazja Marusiak
!!!END: 2021-07-07
